static/dist/images/icons/emoji-happy.svg

<svg xmlns="http://www.w3.org/2000/svg" viewBox="0 0 20 20"><path d="M10 .4A9.6 9.6 0 0 0 .4 10a9.6 9.6 0 1 0 19.2-.001C19.6 4.698 15.301.4 10 .4zm0 17.199A7.6 7.6 0 1 1 10 2.4a7.6 7.6 0 1 1 0 15.199zM7.501 9.75C8.329 9.75 9 8.967 9 8s-.672-1.75-1.5-1.75S6 7.033 6 8s.672 1.75 1.501 1.75zm4.999 0c.829 0 1.5-.783 1.5-1.75s-.672-1.75-1.5-1.75S11 7.034 11 8s.672 1.75 1.5 1.75zm1.841 1.586a.756.756 0 0 0-1.008.32c-.034.066-.869 1.593-3.332 1.593-2.451 0-3.291-1.513-3.333-1.592a.75.75 0 0 0-1.339.678c.05.099 1.248 2.414 4.672 2.414 3.425 0 4.621-2.316 4.67-2.415a.745.745 0 0 0-.33-.998z"/></svg>

<?xml version="1.0" encoding="utf-8"?>
<!-- Generator: Adobe Illustrator 18.1.0, SVG Export Plug-In . SVG Version: 6.00 Build 0)  -->
<!DOCTYPE svg PUBLIC "-//W3C//DTD SVG 1.1//EN" "http://www.w3.org/Graphics/SVG/1.1/DTD/svg11.dtd">
<svg version="1.1" id="Emoji_happy" xmlns="http://www.w3.org/2000/svg" xmlns:xlink="http://www.w3.org/1999/xlink" x="0px"
	 y="0px" viewBox="0 0 20 20" enable-background="new 0 0 20 20" xml:space="preserve">
<path d="M10,0.4C4.698,0.4,0.4,4.698,0.4,10C0.4,15.302,4.698,19.6,10,19.6c5.301,0,9.6-4.298,9.6-9.601
	C19.6,4.698,15.301,0.4,10,0.4z M10,17.599c-4.197,0-7.6-3.402-7.6-7.6S5.802,2.4,10,2.4c4.197,0,7.601,3.402,7.601,7.6
	S14.197,17.599,10,17.599z M7.501,9.75C8.329,9.75,9,8.967,9,8s-0.672-1.75-1.5-1.75s-1.5,0.783-1.5,1.75S6.672,9.75,7.501,9.75z
	 M12.5,9.75C13.329,9.75,14,8.967,14,8s-0.672-1.75-1.5-1.75S11,7.034,11,8S11.672,9.75,12.5,9.75z M14.341,11.336
	c-0.363-0.186-0.815-0.043-1.008,0.32c-0.034,0.066-0.869,1.593-3.332,1.593c-2.451,0-3.291-1.513-3.333-1.592
	c-0.188-0.365-0.632-0.514-1.004-0.329c-0.37,0.186-0.52,0.636-0.335,1.007c0.05,0.099,1.248,2.414,4.672,2.414
	c3.425,0,4.621-2.316,4.67-2.415C14.855,11.967,14.707,11.524,14.341,11.336z"/>
</svg>
